X:160
T:Suzy on the Keys
B:Terry "Cuz" Teahan "Sliabh Luachra on Parade" 1980
Z:Patrick Cavanagh
M:4/4
L:1/8
R:Hornpipe
K:G
dB | GGGB d2BG | cBcd e2dc | BGdG BGdG | BAAG A2BA | 
GFGB d2BG | cBcd e2dc | Bdgd AdcA | B2G2 [1]G2 :|[2] G4 | 
|: Bd g/g/g edBG | cBcd e2dc | BGdG BGdG | BAAG A2Bd | 
g/g/g ge d2BG | cBcd e2dc | Bdgd AdcA | BGGF G4 :|| 

